art/dp/systems_1920/msx.svg

<svg enable-background="new 0 0 3839 1557.6" height="779" viewBox="0 0 1920 779.00005" width="1920" xmlns="http://www.w3.org/2000/svg"><g stroke-width="1.00026" transform="scale(.49999999)"><path d="m0 0h3840.0001v1558h-3840.0001z"/><g fill="#fffffa"><path d="m2722.9091 513.53374h-285.9744v-281.67336h322.4839z"/><path d="m1902.896 231.86116v.0996c-458.6191 0-458.6191 687.87837 0 687.87837v-.0996h247.1639c83.1216 0 83.1216 124.73167 0 124.73167h-570.3477v281.5733h570.3477.1001c458.5174-.1031 458.4852-687.8783-.1001-687.8783h-247.1639v.0996c-83.1216 0-83.1216-124.7317 0-124.7317v-.0996h583.5524v-281.57334z"/><path d="m3536.7211 1326.1454-777.3025-1094.28502-245.1638 141.13676 677.0763 953.14826z"/><path d="m2390.1225 1326.1454 777.2024-1094.28502h345.3899l-777.2024 1094.28502z"/><path d="m595.155 1326.1454 134.43501-492.82838 134.43501 492.82838h253.96618l134.535-492.82838 134.335 492.82838h291.876l-298.4777-1094.28502h-255.6666l-133.63482 489.82757-133.53478-489.82757h-255.66658l-298.47774 1094.28502z"/></g></g></svg>

<?xml version="1.0" encoding="UTF-8" standalone="no"?>
<svg
   enable-background="new 0 0 3839 1557.6"
   height="779"
   viewBox="0 0 1920 779.00005"
   width="1920"
   version="1.1"
   id="svg7"
   sodipodi:docname="msx.svg"
   inkscape:version="1.3.2 (091e20e, 2023-11-25)"
   xmlns:inkscape="http://www.inkscape.org/namespaces/inkscape"
   xmlns:sodipodi="http://sodipodi.sourceforge.net/DTD/sodipodi-0.dtd"
   xmlns="http://www.w3.org/2000/svg"
   xmlns:svg="http://www.w3.org/2000/svg">
  <defs
     id="defs7" />
  <sodipodi:namedview
     id="namedview7"
     pagecolor="#ffffff"
     bordercolor="#000000"
     borderopacity="0.25"
     inkscape:showpageshadow="2"
     inkscape:pageopacity="0.0"
     inkscape:pagecheckerboard="0"
     inkscape:deskcolor="#d1d1d1"
     inkscape:zoom="0.10710949"
     inkscape:cx="2614.1474"
     inkscape:cy="597.51942"
     inkscape:window-width="1312"
     inkscape:window-height="449"
     inkscape:window-x="0"
     inkscape:window-y="23"
     inkscape:window-maximized="0"
     inkscape:current-layer="svg7" />
  <g
     id="g1"
     transform="scale(0.49999999)">
    <g
       id="g9">
      <path
         d="M 0,0 H 3840.0001 V 1558 H 0 Z"
         id="path1"
         style="stroke-width:1.00026" />
      <path
         d="M 2722.9091,513.53374 H 2436.9347 V 231.86038 h 322.4839 z"
         id="path2"
         style="fill:#fffffa;stroke-width:1.00026" />
      <path
         d="m 1902.896,231.86116 v 0.0996 c -458.6191,0 -458.6191,687.87837 0,687.87837 v -0.0996 h 247.1639 c 83.1216,0 83.1216,124.73167 0,124.73167 h -570.3477 v 281.5733 h 570.3477 0.1001 c 458.5174,-0.1031 458.4852,-687.8783 -0.1001,-687.8783 H 1902.896 v 0.0996 c -83.1216,0 -83.1216,-124.7317 0,-124.7317 v -0.0996 h 583.5524 V 231.86116 Z"
         id="path3"
         style="fill:#fffffa;stroke-width:1.00026" />
      <path
         d="M 3536.7211,1326.1454 2759.4186,231.86038 2514.2548,372.99714 3191.3311,1326.1454 Z"
         id="path4"
         style="fill:#fffffa;stroke-width:1.00026" />
      <path
         d="M 2390.1225,1326.1454 3167.3249,231.86038 h 345.3899 L 2735.5124,1326.1454 Z"
         id="path5"
         style="fill:#fffffa;stroke-width:1.00026" />
      <path
         d="M 595.155,1326.1454 729.59001,833.31702 864.02502,1326.1454 h 253.96618 l 134.535,-492.82838 134.335,492.82838 h 291.876 L 1380.2595,231.86038 H 1124.5929 L 990.95808,721.68795 857.4233,231.86038 H 601.75672 L 303.27898,1326.1454 Z"
         id="path6"
         style="fill:#fffffa;stroke-width:1.00026" />
    </g>
  </g>
</svg>
